src/symbolic/apps/multimedia-equalizer-symbolic.svg

<svg xmlns="http://www.w3.org/2000/svg" width="16" height="16"><path d="M8 10v1H1v2h7v1h2v-4zm3 1v2h4v-2zM4 6v1H1v2h3v1h2V6zm3 1v2h8V7zM10 2v1H1v2h9v1h2V2zm3 1v2h2V3z" fill="#444"/></svg>

<svg xmlns="http://www.w3.org/2000/svg" width="16" height="16" version="1.1">
 <path style="fill:#444444" d="M 8,10 V 11 H 1 V 13 H 8 V 14 H 10 V 10 Z M 11,11 V 13 H 15 V 11 Z"/>
 <path style="fill:#444444" d="M 4,6 V 7 H 1 V 9 H 4 V 10 H 6 V 6 Z M 7,7 V 9 H 15 V 7 Z"/>
 <path style="fill:#444444" d="M 10,2 V 3 H 1 V 5 H 10 V 6 H 12 V 2 Z M 13,3 V 5 H 15 V 3 Z"/>
</svg>
